X: 39634
T: Temple Hill
R: reel
M: 4/4
K: Adorian
|:.A.A.AB e2 dB|e2 dB GABG|EAAB edef|(3gfe dB BAAG|
EAAB e2 dB|eBdB GABG|EAAB edef|(3gfe dB BAAg:|
|:ea a2 b2 af|gedB GABd|ea a2 bgaf|gedB BA A2|
ea a2 b2 af|gedB GABd|ea a2 b2af|gedB A3B:|
|:c3A B3G|AcBA GEE2|cA A2 BGG2|AcBG A3B|
c3A B3G|AcBA GEE2|GBAc Bdge|dBGB A3d:|

